contributed-vectors/bubble_level.svg

<svg viewBox="0 0 192 192" xmlns="http://www.w3.org/2000/svg" fill-rule="evenodd" clip-rule="evenodd" stroke-linejoin="round" stroke-miterlimit="2"><path d="M172.5 29.5c0-5.519-4.481-10-10-10h-133c-5.519 0-10 4.481-10 10v133c0 5.519 4.481 10 10 10h133c5.519 0 10-4.481 10-10v-133z" fill="none"/><path d="M29.242 172.497l.129.002-.129-.002zm-.511-.026l.103.007-.103-.007-.103-.009.103.009zm135.381-.101a9.892 9.892 0 01-.339.05l-.125.015c.155-.018.31-.04.464-.065zm-136.381-.026c.06.01.12.021.181.03l-.181-.03zm137.147-.129l.106-.027-.106.027zm-137.995-.062l.119.032-.119-.032zm-.355-.103l.117.036a10.49 10.49 0 01-.234-.073l.117.037zm-.35-.116l.116.04.117.039a10.189 10.189 0 01-.348-.12l.115.041zm140.436-.318l-.111.05.111-.05zm.437-.211l-.03.015.03-.015.023-.012-.023.012zm.32-.171l-.106.058c.051-.027.101-.055.152-.084l-.046.026zm-142.847-.06l.065.037-.169-.098.104.061zm-.513-.316a5.933 5.933 0 00-.1-.067l.1.067zm144.661-.492a9.399 9.399 0 01-.483.357l-.1.068c.233-.157.459-.324.677-.5l-.094.075zm-145.531-.151l.072.06-.072-.06-.025-.02.025.02zm-.274-.234l-.089-.08.089.08zm-.351-.327l.086.083.087.083a12.263 12.263 0 01-.259-.25l.086.084zm147.385-.432c-.081.089-.163.176-.247.262l-.084.086c.141-.142.278-.287.411-.437l-.08.089zm-148.624-1.033l-.068-.1.068.1zm149.935-.78zm-150.2.377l.064.102-.064-.102zm-.33-.57zm150.668-.059l-.058.108.058-.108zm.316-.654zm-151.381-.117zm-.135-.335a8.926 8.926 0 01-.084-.229l.041.115.043.114zm-.395-1.3zm152.61-.605l-.019.108.019-.108.01-.063-.01.063zM19.52 163.142c.006.085.012.17.02.254l-.011-.127-.009-.127zm152.94.254c.008-.085.014-.169.02-.254l-.009.127-.011.127zM19.5 85.304V29.5c0-5.519 4.481-10 10-10h133c5.519 0 10 4.481 10 10V160v-13.408l-153-61.288zm143.386 87.189l.128-.006-.128.006-.128.004.128-.004zm-141.47-4.108c.142.194.29.383.446.567l-.077-.093a10.191 10.191 0 01-.439-.572l.07.098zm148.799.474l-.077.093.077-.093.076-.093-.076.093zm1.545-2.581l.046-.113-.046.113-.046.113.046-.113zm.174-.456a10.601 10.601 0 00-.041.115l.041-.115zm.219-.705c.018-.064.035-.129.051-.194-.027.105-.054.21-.084.313l.033-.119z" fill="#96dfd3"/><path d="M172.5 130.301l-99.542-23.583 99.542 39.874v-16.291z" fill="#ff837d"/><path d="M172.5 146.592V162.5c0 5.519-4.481 10-10 10h-133c-5.519 0-10-4.481-10-10V85.304l153 61.288z" fill="#9abeff"/><path d="M72.958 106.718L19.5 85.304v8.749l53.458 12.665z" fill="#ff837d"/><path d="M154.021 45.331c4.822 0 8.737 3.915 8.737 8.737 0 4.823-3.915 8.738-8.737 8.738-4.823 0-8.738-3.915-8.738-8.738 0-4.822 3.915-8.737 8.738-8.737zm0 2.56a6.18 6.18 0 016.177 6.177 6.18 6.18 0 01-6.177 6.177 6.18 6.18 0 01-6.178-6.177 6.18 6.18 0 016.178-6.177z" fill="#fff"/><text x="87.222" y="93.855" font-family="'LeelawadeeUI-Semilight','Leelawadee UI',sans-serif" font-weight="350" font-size="67.349" fill="#fff" transform="translate(-5.09)">2<tspan x="121.358" y="93.855">1</tspan></text><path fill="#fff" d="M19.52 37.181h34.518v2.521H19.52zM19.5 94.825h34.518v2.52H19.5zM19.52 152.488h34.518v2.521H19.52zM158.995 105.457H172.5v1.553h-13.505zM72.181 119.503V92.965h1.553v26.538z"/><path fill="#fff" d="M59.793 105.457h26.33v1.553h-26.33z"/></svg>

<?xml version="1.0" encoding="UTF-8" standalone="no"?>
<!DOCTYPE svg PUBLIC "-//W3C//DTD SVG 1.1//EN" "http://www.w3.org/Graphics/SVG/1.1/DTD/svg11.dtd">
<svg width="100%" height="100%" viewBox="0 0 192 192" version="1.1" xmlns="http://www.w3.org/2000/svg" xmlns:xlink="http://www.w3.org/1999/xlink" xml:space="preserve" xmlns:serif="http://www.serif.com/" style="fill-rule:evenodd;clip-rule:evenodd;stroke-linejoin:round;stroke-miterlimit:2;">
    <g id="Layer1">
        <g transform="matrix(1,0,0,1,8,8)">
            <path d="M164.5,21.5C164.5,15.981 160.019,11.5 154.5,11.5L21.5,11.5C15.981,11.5 11.5,15.981 11.5,21.5L11.5,154.5C11.5,160.019 15.981,164.5 21.5,164.5L154.5,164.5C160.019,164.5 164.5,160.019 164.5,154.5L164.5,21.5Z" style="fill:none;"/>
        </g>
        <path d="M29.242,172.497C29.285,172.498 29.328,172.499 29.371,172.499L29.242,172.497ZM28.731,172.471L28.834,172.478L28.731,172.471L28.628,172.462L28.731,172.471ZM164.112,172.37C163.999,172.389 163.886,172.405 163.773,172.42L163.648,172.435C163.803,172.417 163.958,172.395 164.112,172.37ZM27.731,172.344C27.791,172.354 27.851,172.365 27.912,172.374C27.851,172.364 27.791,172.354 27.731,172.344ZM164.878,172.215L164.984,172.188L164.878,172.215ZM26.883,172.153C26.922,172.164 26.962,172.174 27.002,172.185C26.962,172.174 26.922,172.164 26.883,172.153ZM26.528,172.05L26.645,172.086C26.567,172.063 26.489,172.038 26.411,172.013L26.528,172.05ZM26.178,171.934C26.217,171.948 26.256,171.961 26.294,171.974L26.411,172.013C26.294,171.975 26.178,171.935 26.063,171.893L26.178,171.934ZM166.614,171.616C166.577,171.633 166.54,171.649 166.503,171.666C166.54,171.649 166.577,171.633 166.614,171.616ZM167.051,171.405L167.021,171.42L167.051,171.405L167.074,171.393L167.051,171.405ZM167.371,171.234L167.265,171.292C167.316,171.265 167.366,171.237 167.417,171.208L167.371,171.234ZM24.524,171.174L24.589,171.211C24.532,171.179 24.476,171.146 24.42,171.113L24.524,171.174ZM24.011,170.858C24.066,170.895 24.122,170.931 24.178,170.966C24.088,170.909 23.999,170.851 23.911,170.791L24.011,170.858ZM168.672,170.366C168.515,170.49 168.354,170.609 168.189,170.723L168.089,170.791C168.322,170.634 168.548,170.467 168.766,170.291L168.672,170.366ZM23.141,170.215L23.213,170.275L23.141,170.215L23.116,170.195L23.141,170.215ZM22.867,169.981L22.778,169.901L22.867,169.981ZM22.516,169.654C22.544,169.682 22.573,169.71 22.602,169.737L22.689,169.82C22.601,169.738 22.515,169.654 22.43,169.57L22.516,169.654ZM169.901,169.222C169.82,169.311 169.738,169.398 169.654,169.484L169.57,169.57C169.711,169.428 169.848,169.283 169.981,169.133L169.901,169.222ZM21.277,168.189L21.209,168.089L21.277,168.189ZM171.212,167.409C171.086,167.632 170.952,167.85 170.809,168.062C170.952,167.85 171.086,167.632 171.212,167.409ZM21.012,167.786L21.076,167.888C21.055,167.855 21.033,167.821 21.012,167.786ZM20.682,167.216C20.747,167.339 20.816,167.46 20.887,167.58C20.816,167.46 20.747,167.339 20.682,167.216ZM171.35,167.157C171.331,167.193 171.312,167.229 171.292,167.265L171.35,167.157ZM171.666,166.503C171.6,166.651 171.532,166.798 171.46,166.943C171.532,166.798 171.6,166.651 171.666,166.503ZM20.285,166.386C20.325,166.482 20.366,166.576 20.41,166.669C20.366,166.576 20.325,166.482 20.285,166.386ZM20.15,166.051C20.121,165.975 20.093,165.899 20.066,165.822L20.107,165.937L20.15,166.051ZM19.755,164.751C19.814,165.01 19.884,165.264 19.963,165.515C19.884,165.264 19.815,165.01 19.755,164.751ZM172.365,164.146L172.346,164.254L172.365,164.146L172.375,164.083L172.365,164.146ZM19.52,163.142C19.526,163.227 19.532,163.312 19.54,163.396L19.529,163.269L19.52,163.142ZM172.46,163.396C172.468,163.311 172.474,163.227 172.48,163.142L172.471,163.269L172.46,163.396ZM19.5,85.304L19.5,29.5C19.5,23.981 23.981,19.5 29.5,19.5L162.5,19.5C168.019,19.5 172.5,23.981 172.5,29.5L172.5,160L172.5,146.592L19.5,85.304ZM162.886,172.493C162.929,172.491 162.972,172.489 163.014,172.487L162.886,172.493C162.844,172.494 162.801,172.496 162.758,172.497L162.886,172.493ZM21.416,168.385C21.558,168.579 21.706,168.768 21.862,168.952L21.785,168.859C21.632,168.674 21.486,168.483 21.346,168.287L21.416,168.385ZM170.215,168.859C170.19,168.89 170.164,168.921 170.138,168.952L170.215,168.859C170.241,168.828 170.266,168.797 170.291,168.766L170.215,168.859ZM171.76,166.278C171.776,166.241 171.791,166.203 171.806,166.165L171.76,166.278C171.745,166.316 171.729,166.353 171.714,166.391L171.76,166.278ZM171.934,165.822C171.988,165.668 172.039,165.512 172.086,165.355C172.027,165.551 171.963,165.745 171.893,165.937L171.934,165.822ZM172.153,165.117C172.171,165.053 172.188,164.988 172.204,164.923C172.177,165.028 172.15,165.133 172.12,165.236L172.153,165.117Z" style="fill:rgb(150,223,211);"/>
        <path d="M172.5,130.301L72.958,106.718L172.5,146.592L172.5,130.301Z" style="fill:rgb(255,131,125);"/>
        <path d="M172.5,146.592L172.5,162.5C172.5,168.019 168.019,172.5 162.5,172.5L29.5,172.5C23.981,172.5 19.5,168.019 19.5,162.5L19.5,85.304L172.5,146.592Z" style="fill:rgb(154,190,255);"/>
        <path d="M72.958,106.718L19.5,85.304L19.5,94.053L72.958,106.718Z" style="fill:rgb(255,131,125);"/>
        <path d="M154.021,45.331C158.843,45.331 162.758,49.246 162.758,54.068C162.758,58.891 158.843,62.806 154.021,62.806C149.198,62.806 145.283,58.891 145.283,54.068C145.283,49.246 149.198,45.331 154.021,45.331ZM154.021,47.891C157.43,47.891 160.198,50.659 160.198,54.068C160.198,57.478 157.43,60.245 154.021,60.245C150.611,60.245 147.843,57.478 147.843,54.068C147.843,50.659 150.611,47.891 154.021,47.891Z" style="fill:white;"/>
        <g transform="matrix(1,0,0,1,-5.0909,0)">
            <text x="87.222px" y="93.855px" style="font-family:'LeelawadeeUI-Semilight', 'Leelawadee UI', sans-serif;font-weight:350;font-size:67.349px;fill:white;">2<tspan x="121.358px " y="93.855px ">1</tspan></text>
        </g>
        <g>
            <rect x="19.52" y="37.181" width="34.518" height="2.521" style="fill:white;"/>
            <g transform="matrix(1,0,0,1,-0.0203065,57.6435)">
                <rect x="19.52" y="37.181" width="34.518" height="2.521" style="fill:white;"/>
            </g>
            <g transform="matrix(1,0,0,1,3.55271e-15,115.307)">
                <rect x="19.52" y="37.181" width="34.518" height="2.521" style="fill:white;"/>
            </g>
            <g transform="matrix(0.391246,0,0,0.61615,151.358,82.5479)">
                <rect x="19.52" y="37.181" width="34.518" height="2.521" style="fill:white;"/>
            </g>
            <g transform="matrix(4.7076e-17,-0.76881,0.61615,3.77283e-17,49.272,134.51)">
                <rect x="19.52" y="37.181" width="34.518" height="2.521" style="fill:white;"/>
            </g>
            <g transform="matrix(0.762799,0,0,0.61615,44.9027,82.5479)">
                <rect x="19.52" y="37.181" width="34.518" height="2.521" style="fill:white;"/>
            </g>
        </g>
    </g>
</svg>
